X: 1
T: Miss McLeod's Reel
C: Trad
R: Reel
L: 1/8
M: 4/4
K: G
Z: ABC transcription by Verge Roller
Z: ABC transcription by Verge Roller
|: BA | "G" G2 g2 edeg | "G" B2 BA BcBA | "G" G2 g2 edeg | "D" A2 AG AcBA |
"G" G2 g2 edeg | "G" B2 BA B2 d2 | "C" e2ef edef | "G" gedB "D" Ac :|
|: BA | "G" GABc dBGA | "G" B2BA BcBA | "G" GABc dBGB | "D" A2AG AcBA |
"G" GABc dBGA | "G" B2 BA B2 d2 | "C" e2ef edef | "G" gedB "D" Ac :|
r:32
